imgs/lock-secure.svg

<svg width="100" height="27" viewBox="0 0 100 27" fill="none" xmlns="http://www.w3.org/2000/svg">
<rect width="100" height="27" rx="13.5" fill="#FFA800"/>
<path d="M26 10H24.8571V7.45455C24.8571 6.61067 24.5561 5.80137 24.0203 5.20466C23.4845 4.60795 22.7578 4.27273 22 4.27273C21.2422 4.27273 20.5155 4.60795 19.9797 5.20466C19.4439 5.80137 19.1429 6.61067 19.1429 7.45455V10H18V7.45455C18 6.27313 18.4214 5.1401 19.1716 4.30471C19.9217 3.46932 20.9391 3 22 3C23.0609 3 24.0783 3.46932 24.8284 4.30471C25.5786 5.1401 26 6.27313 26 7.45455V10Z" fill="white"/>
<path d="M28.7692 10H15.2308C14.9043 10 14.5913 10.122 14.3605 10.3391C14.1297 10.5563 14 10.8508 14 11.1579V19.8421C14 20.1492 14.1297 20.4437 14.3605 20.6609C14.5913 20.878 14.9043 21 15.2308 21H28.7692C29.0957 21 29.4087 20.878 29.6395 20.6609C29.8703 20.4437 30 20.1492 30 19.8421V11.1579C30 10.8508 29.8703 10.5563 29.6395 10.3391C29.4087 10.122 29.0957 10 28.7692 10ZM22.6154 16.8652V18.6842H21.3846V16.8652C20.8045 16.7242 20.299 16.3891 19.9627 15.9226C19.6265 15.4561 19.4826 14.8903 19.5581 14.3311C19.6336 13.7719 19.9232 13.2579 20.3728 12.8853C20.8223 12.5127 21.4009 12.3071 22 12.3071C22.5991 12.3071 23.1777 12.5127 23.6272 12.8853C24.0768 13.2579 24.3664 13.7719 24.4419 14.3311C24.5174 14.8903 24.3735 15.4561 24.0373 15.9226C23.701 16.3891 23.1955 16.7242 22.6154 16.8652Z" fill="white"/>
<path d="M37.1455 20.1162C37.4805 20.1162 37.8086 20.082 38.1367 20.0137C38.458 19.9453 38.7725 19.8291 39.0801 19.665C39.3877 19.501 39.6611 19.3096 39.8936 19.0771C40.126 18.8447 40.3105 18.5576 40.4541 18.209C40.5908 17.8604 40.666 17.4775 40.666 17.0537C40.666 16.6436 40.5977 16.2881 40.4746 15.9736C40.2695 15.4814 39.8525 15.0645 39.2373 14.7227C38.9639 14.5791 38.417 14.3467 37.5898 14.0186C37.3301 13.9229 37.1182 13.8408 36.9678 13.7725C36.8174 13.7041 36.6602 13.6289 36.5098 13.5469C36.3594 13.4648 36.2432 13.3828 36.168 13.3008C36.0859 13.2188 36.0244 13.1299 35.9834 13.0273C35.9355 12.9316 35.915 12.8154 35.915 12.6924C35.915 12.3848 36.0312 12.1387 36.25 11.9609C36.4688 11.7832 36.7559 11.6943 37.1113 11.6943C37.7539 11.6943 38.4785 12.0225 39.2783 12.6719L40.4131 11.1885C39.3809 10.3408 38.2666 9.92383 37.0635 9.9375C36.4756 9.95117 35.9355 10.0811 35.4502 10.3271C34.958 10.5732 34.5752 10.915 34.2949 11.3457C34.0078 11.7832 33.8711 12.2617 33.8711 12.7812C33.8711 13.041 33.8984 13.2871 33.96 13.5195C34.0215 13.752 34.1035 13.9502 34.1992 14.1279C34.2949 14.3057 34.4248 14.4697 34.582 14.627C34.7393 14.7842 34.8965 14.9209 35.0605 15.0303C35.2178 15.1396 35.4092 15.2559 35.6279 15.3652C35.8467 15.4746 36.0449 15.5703 36.2363 15.6387C36.4209 15.7139 36.6328 15.7959 36.8789 15.8779C37.1455 15.9736 37.3643 16.0488 37.5283 16.1172C37.6924 16.1855 37.8496 16.2607 38 16.3428C38.1504 16.4248 38.2666 16.5137 38.3486 16.5957C38.4307 16.6846 38.4922 16.7871 38.54 16.8965C38.5811 17.0127 38.6084 17.1426 38.6084 17.2861C38.6084 17.498 38.5537 17.6826 38.4512 17.833C38.3418 17.9902 38.1846 18.1133 37.9658 18.2021C37.7471 18.2979 37.4873 18.3389 37.1797 18.3389C36.9746 18.3389 36.7695 18.3184 36.5645 18.2637C36.3525 18.2158 36.1406 18.1406 35.9287 18.0381C35.7168 17.9424 35.5049 17.8125 35.293 17.6484C35.0811 17.4912 34.8828 17.3066 34.7051 17.0947L33.5225 18.5508C34.0283 19.0771 34.5957 19.4668 35.2178 19.7266C35.8398 19.9863 36.4824 20.1162 37.1455 20.1162ZM42.3271 20H48.9785V18.2432H44.2686V15.9395H47.8096V14.2031H44.2686V11.8174H48.6846V10.0537H42.3271V20ZM55.0625 20.1025C55.8965 20.1025 56.6484 19.9316 57.3252 19.5898C57.9951 19.248 58.5625 18.79 59.0205 18.2158L57.5781 16.9785C57.2705 17.3613 56.9014 17.6689 56.4639 17.8945C56.0264 18.127 55.5547 18.2363 55.0625 18.2363C54.4746 18.2363 53.9551 18.1064 53.4971 17.833C53.0391 17.5596 52.6836 17.1836 52.4307 16.6982C52.1777 16.2197 52.0547 15.6729 52.0547 15.0576C52.0547 14.7773 52.0752 14.5107 52.1299 14.251C52.1777 13.998 52.2529 13.7656 52.3486 13.5469C52.4443 13.3281 52.5537 13.1299 52.6904 12.9453C52.8271 12.7676 52.9775 12.6035 53.1484 12.4668C53.3193 12.3301 53.5039 12.207 53.709 12.1113C53.9072 12.0156 54.1191 11.9404 54.3516 11.8857C54.5771 11.8379 54.8164 11.8105 55.0625 11.8105C55.5547 11.8105 56.0195 11.9336 56.457 12.166C56.8945 12.3984 57.2637 12.7061 57.5781 13.0752L59.0205 11.8447C58.665 11.4141 58.2617 11.0518 57.8105 10.7578C57.3594 10.4707 56.9014 10.2588 56.4502 10.1289C55.9922 10.0059 55.5273 9.9375 55.0625 9.9375C54.4199 9.9375 53.832 10.0264 53.2852 10.1973C52.7383 10.375 52.2666 10.6143 51.8701 10.9287C51.4736 11.2432 51.1318 11.6055 50.8447 12.0293C50.5576 12.4531 50.3457 12.9248 50.209 13.4375C50.0654 13.9502 49.9971 14.4902 49.9971 15.0576C49.9971 15.7002 50.0859 16.2949 50.2637 16.8418C50.4414 17.3887 50.6807 17.8604 50.9951 18.2568C51.3096 18.6533 51.6787 18.9883 52.1025 19.2686C52.5264 19.5557 52.9844 19.7607 53.4902 19.8975C53.9893 20.0342 54.5156 20.1025 55.0625 20.1025ZM64.4414 20.1162C65.2822 20.1162 66.0068 19.9453 66.6152 19.5967C67.2236 19.2549 67.6885 18.7627 68.0029 18.127C68.3174 17.498 68.4814 16.7461 68.4814 15.8848V10.0537H66.5127V15.7549C66.5127 16.5342 66.3213 17.1494 65.9385 17.6006C65.5557 18.0518 65.0566 18.2705 64.4414 18.2705C64.0176 18.2705 63.6484 18.1611 63.334 17.9424C63.0195 17.7236 62.7871 17.4229 62.6367 17.0469C62.4795 16.6709 62.4043 16.2402 62.4043 15.7549V10.0537H60.4287V15.8848C60.4287 16.5547 60.5244 17.1562 60.7158 17.6895C60.9072 18.2227 61.1807 18.667 61.5361 19.0225C61.8848 19.3779 62.3086 19.6445 62.8008 19.8359C63.293 20.0273 63.8398 20.1162 64.4414 20.1162ZM78.1953 20L75.7412 16.3906V16.3633C76.165 16.2266 76.5273 16.0215 76.8281 15.7549C77.1289 15.4951 77.3613 15.1602 77.5254 14.7568C77.6895 14.3535 77.7783 13.8887 77.7783 13.3691C77.7783 12.8838 77.7031 12.4395 77.5664 12.043C77.4297 11.6465 77.2178 11.2979 76.9443 10.9971C76.6709 10.6963 76.3086 10.4639 75.8574 10.2998C75.4062 10.1357 74.8936 10.0537 74.3125 10.0537H70.5527V20H72.4941V16.5957H73.6357L75.8643 20H78.1953ZM72.4941 11.8037H73.957C74.5176 11.8037 74.9551 11.9404 75.2695 12.2139C75.584 12.4873 75.7412 12.8633 75.7412 13.3281C75.7412 13.7998 75.5771 14.1758 75.2559 14.4492C74.9277 14.7227 74.4697 14.8594 73.875 14.8594H72.4941V11.8037ZM79.6924 20H86.3438V18.2432H81.6338V15.9395H85.1748V14.2031H81.6338V11.8174H86.0498V10.0537H79.6924V20Z" fill="white"/>
</svg>

<svg width="100" height="27" fill="none" xmlns="http://www.w3.org/2000/svg"><rect width="100" height="27" rx="13.5" fill="#FFA800"/><path d="M26 10h-1.143V7.455c0-.844-.3-1.654-.837-2.25-.535-.597-1.262-.932-2.02-.932s-1.485.335-2.02.932c-.536.596-.837 1.406-.837 2.25V10H18V7.455c0-1.182.421-2.315 1.172-3.15C19.922 3.469 20.939 3 22 3c1.06 0 2.078.47 2.828 1.305S26 6.273 26 7.455V10z" fill="#fff"/><path d="M28.77 10H15.23c-.326 0-.639.122-.87.34-.23.216-.36.51-.36.818v8.684c0 .307.13.602.36.819.231.217.544.339.87.339h13.54c.326 0 .639-.122.87-.34.23-.216.36-.51.36-.818v-8.684c0-.307-.13-.602-.36-.819a1.271 1.271 0 00-.87-.339zm-6.155 6.865v1.82h-1.23v-1.82a2.465 2.465 0 01-1.422-.942 2.21 2.21 0 01-.405-1.592c.076-.56.365-1.073.815-1.446A2.553 2.553 0 0122 12.307c.6 0 1.178.206 1.627.578.45.373.74.887.815 1.446a2.21 2.21 0 01-.405 1.592 2.465 2.465 0 01-1.422.942zm14.53 3.251c.335 0 .664-.034.992-.102.321-.069.636-.185.943-.349.308-.164.581-.355.814-.588.232-.232.416-.52.56-.868.137-.349.212-.732.212-1.155 0-.41-.068-.766-.191-1.08-.206-.493-.623-.91-1.238-1.251-.273-.144-.82-.376-1.647-.704a7.123 7.123 0 01-1.08-.472 1.34 1.34 0 01-.342-.246.804.804 0 01-.185-.274.752.752 0 01-.068-.335.9.9 0 01.335-.731c.219-.178.506-.267.861-.267.643 0 1.367.329 2.167.978l1.135-1.484c-1.032-.847-2.146-1.264-3.35-1.25a3.72 3.72 0 00-1.613.39 2.89 2.89 0 00-1.155 1.018 2.557 2.557 0 00-.424 1.435 2.75 2.75 0 00.328 1.347c.096.178.226.342.383.499.157.157.315.294.478.403.158.11.35.226.568.335.219.11.417.205.608.274.185.075.397.157.643.239.267.096.485.17.65.24.163.068.32.143.471.225.15.082.267.17.349.253.082.089.143.191.191.3.041.117.068.247.068.39a.955.955 0 01-.157.547c-.11.157-.266.28-.485.37-.219.095-.479.136-.786.136-.205 0-.41-.02-.615-.075a2.955 2.955 0 01-.636-.226 3.185 3.185 0 01-.636-.39 3.448 3.448 0 01-.588-.553l-1.182 1.456a5.025 5.025 0 001.695 1.176c.622.26 1.264.39 1.927.39zM42.328 20h6.651v-1.757h-4.71V15.94h3.542v-1.737H44.27v-2.386h4.416v-1.763h-6.358V20zm12.736.102c.834 0 1.585-.17 2.262-.512.67-.342 1.237-.8 1.695-1.374l-1.442-1.238a3.45 3.45 0 01-1.114.916c-.438.233-.91.342-1.401.342-.588 0-1.108-.13-1.566-.403a2.799 2.799 0 01-1.066-1.135c-.253-.478-.376-1.025-.376-1.64 0-.28.02-.547.075-.807a3.25 3.25 0 01.219-.704c.095-.219.205-.417.341-.602a2.766 2.766 0 011.019-.834c.198-.095.41-.17.643-.225a3.41 3.41 0 01.71-.075c.493 0 .958.123 1.395.355.438.232.807.54 1.121.91l1.442-1.231a5.356 5.356 0 00-1.21-1.087 5.266 5.266 0 00-1.36-.63 5.35 5.35 0 00-1.388-.19c-.642 0-1.23.088-1.777.26a4.471 4.471 0 00-1.415.73 4.91 4.91 0 00-1.025 1.101 4.614 4.614 0 00-.636 1.409 5.98 5.98 0 00-.212 1.62c0 .642.089 1.237.267 1.784a4.47 4.47 0 00.731 1.415c.315.396.684.731 1.108 1.012.423.287.881.492 1.387.629.5.136 1.026.204 1.572.204zm9.378.014c.841 0 1.566-.17 2.174-.52a3.355 3.355 0 001.388-1.469c.314-.629.478-1.38.478-2.242v-5.831h-1.968v5.7c0 .78-.192 1.395-.575 1.847-.382.45-.881.67-1.497.67a1.89 1.89 0 01-1.107-.329 1.941 1.941 0 01-.697-.895c-.157-.376-.233-.807-.233-1.292v-5.701H60.43v5.83c0 .67.095 1.272.287 1.805.191.534.465.978.82 1.334a3.54 3.54 0 001.265.813c.492.191 1.039.28 1.64.28zM78.195 20l-2.454-3.61v-.027a3.012 3.012 0 001.087-.608c.3-.26.533-.595.697-.998.164-.403.253-.868.253-1.388 0-.485-.075-.93-.212-1.326a2.996 2.996 0 00-.622-1.046c-.273-.3-.635-.533-1.087-.697-.45-.164-.963-.246-1.544-.246h-3.76V20h1.941v-3.404h1.142L75.864 20h2.331zm-5.7-8.196h1.462c.56 0 .998.136 1.313.41.314.273.471.65.471 1.114 0 .472-.164.848-.485 1.121-.328.274-.786.41-1.381.41h-1.38v-3.055zM79.691 20h6.652v-1.757h-4.71V15.94h3.54v-1.737h-3.54v-2.386h4.416v-1.763h-6.358V20z" fill="#fff"/></svg>
